X: 1776895667
T: Miller's Reel
C: Trad.
R: reel
Z: Cam Cross 
M: 4/4
K: Amaj
%
[P:A-part]
"A" A,CEC "D" DFAF | "E" EGBG "A" ABcA | "E" BEcE dEcE | "E" BEcB AFEC |
"A" A,CEC "D" DFAF | "E" EGBG "A" ABcA | "E" Bcde fgaf | "E" ecB^G "A" A2c2 :|
%
[P:B-part]
"A" a2ec Aceg | "B7" b2f^d Bdfd | "E" efge bege | "B7" fe^df e=dcB |
"A" Aaga faec | "D" dcdf ecAF | "E" EGB^d efe=d | "E" cBAG "A" A2c2 :|
%
%%text Chords: A/D E/A E E | A/D E/A E E/A :|   A B7 E B7 | A D E E/A :|
%